assets/images/sections/about/amazon_web_services.svg

<svg width="34" height="34" viewBox="0 0 34 34" version="1.1" xmlns="http://www.w3.org/2000/svg" xmlns:xlink="http://www.w3.org/1999/xlink">
<title>server</title>
<desc>Created using Figma</desc>
<g id="Canvas" transform="translate(7 4085)">
<g id="server">
<g id="Shape">
<use xlink:href="#path0_fill" transform="translate(11.3322 -4062.05)" fill="#ED93A3"/>
</g>
<g id="Shape">
<use xlink:href="#path1_fill" transform="translate(-3.6 -4081.32)" fill="#ED93A3"/>
</g>
<g id="Oval">
<use xlink:href="#path2_fill" transform="translate(20.7667 -4080.18)" fill="#ED93A3"/>
</g>
<g id="Oval">
<use xlink:href="#path2_fill" transform="translate(18.5 -4080.18)" fill="#ED93A3"/>
</g>
<g id="Oval">
<use xlink:href="#path2_fill" transform="translate(21.9 -4078.48)" fill="#ED93A3"/>
</g>
<g id="Oval">
<use xlink:href="#path2_fill" transform="translate(19.6333 -4078.48)" fill="#ED93A3"/>
</g>
<g id="Oval">
<use xlink:href="#path2_fill" transform="translate(16.2333 -4080.18)" fill="#ED93A3"/>
</g>
<g id="Oval">
<use xlink:href="#path2_fill" transform="translate(17.3667 -4078.48)" fill="#ED93A3"/>
</g>
<g id="Oval">
<use xlink:href="#path2_fill" transform="translate(13.9667 -4080.18)" fill="#ED93A3"/>
</g>
<g id="Oval">
<use xlink:href="#path2_fill" transform="translate(15.1 -4078.48)" fill="#ED93A3"/>
</g>
<g id="Oval">
<use xlink:href="#path2_fill" transform="translate(11.7 -4080.18)" fill="#ED93A3"/>
</g>
<g id="Oval">
<use xlink:href="#path2_fill" transform="translate(12.8333 -4078.48)" fill="#ED93A3"/>
</g>
<g id="Shape">
<use xlink:href="#path3_fill" transform="translate(-7 -4084.72)" fill="#ED93A3"/>
</g>
<g id="Shape">
<use xlink:href="#path4_fill" transform="translate(-3.6 -4070.55)" fill="#ED93A3"/>
</g>
<g id="Oval">
<use xlink:href="#path2_fill" transform="translate(20.7667 -4069.42)" fill="#ED93A3"/>
</g>
<g id="Oval">
<use xlink:href="#path2_fill" transform="translate(18.5 -4069.42)" fill="#ED93A3"/>
</g>
<g id="Oval">
<use xlink:href="#path2_fill" transform="translate(21.9 -4067.72)" fill="#ED93A3"/>
</g>
<g id="Oval">
<use xlink:href="#path2_fill" transform="translate(19.6333 -4067.72)" fill="#ED93A3"/>
</g>
<g id="Oval">
<use xlink:href="#path2_fill" transform="translate(16.2333 -4069.42)" fill="#ED93A3"/>
</g>
<g id="Oval">
<use xlink:href="#path2_fill" transform="translate(17.3667 -4067.72)" fill="#ED93A3"/>
</g>
<g id="Oval">
<use xlink:href="#path2_fill" transform="translate(13.9667 -4069.42)" fill="#ED93A3"/>
</g>
<g id="Oval">
<use xlink:href="#path2_fill" transform="translate(15.1 -4067.72)" fill="#ED93A3"/>
</g>
<g id="Oval">
<use xlink:href="#path2_fill" transform="translate(11.7 -4069.42)" fill="#ED93A3"/>
</g>
<g id="Oval">
<use xlink:href="#path2_fill" transform="translate(12.8333 -4067.72)" fill="#ED93A3"/>
</g>
<g id="Shape">
<use xlink:href="#path4_fill" transform="translate(-3.6 -4059.78)" fill="#ED93A3"/>
</g>
</g>
</g>
<defs>
<path id="path0_fill" fill-rule="evenodd" d="M 8.80883 0C 11.1327 0 13.0724 1.82739 13.3155 4.15479C 14.6523 4.61157 15.5828 5.89966 15.5833 7.3728C 15.5833 9.24414 14.0964 10.7666 12.2689 10.7666L 9.82657 10.7666C 9.7903 10.7666 9.75517 10.7644 9.72003 10.7622C 9.69 10.7644 9.65713 10.7666 9.62313 10.7666L 3.51787 10.7666C 1.57817 10.7666 0 9.15063 0 7.16333C 0 5.88208 0.685101 4.68628 1.76573 4.04541C 2.1539 2.77832 3.3218 1.88477 4.63647 1.88477C 4.80477 1.88477 4.97193 1.89893 5.13683 1.92773C 5.98457 0.72876 7.3559 0 8.80883 0ZM 9.8022 9.63159L 12.2683 9.6333C 13.4708 9.6333 14.4494 8.6189 14.4489 7.37231C 14.4489 6.28589 13.6992 5.35205 12.6661 5.15161L 12.2134 5.06372L 12.2071 4.60303C 12.1828 2.68994 10.6584 1.1333 8.80827 1.1333C 7.599 1.1333 6.50647 1.77808 5.8854 2.85815L 5.6542 3.26123L 5.2139 3.11328C 5.02577 3.05029 4.8314 3.01807 4.6359 3.01807C 3.76323 3.01807 2.9937 3.65894 2.80613 4.54297L 2.74833 4.81201L 2.50183 4.93335C 1.66997 5.34424 1.1322 6.21973 1.1322 7.16309C 1.1322 8.5249 2.20207 9.6333 3.51673 9.6333L 9.70587 9.62817L 9.8022 9.63159Z"/>
<path id="path1_fill" fill-rule="evenodd" d="M 0 2.55005C 0 1.14404 1.1441 0 2.55 0C 3.9559 0 5.1 1.14404 5.1 2.55005C 5.1 3.95581 3.9559 5.1001 2.55 5.1001C 1.1441 5.1001 0 3.95581 0 2.55005ZM 1.13333 2.55005C 1.13333 3.3313 1.76857 3.96655 2.55 3.96655C 3.33143 3.96655 3.96667 3.3313 3.96667 2.55005C 3.96667 1.76855 3.33143 1.1333 2.55 1.1333C 1.76857 1.1333 1.13333 1.76855 1.13333 2.55005Z"/>
<path id="path2_fill" d="M 0.566667 1.13333C 0.879628 1.13333 1.13333 0.879628 1.13333 0.566667C 1.13333 0.253705 0.879628 0 0.566667 0C 0.253705 0 0 0.253705 0 0.566667C 0 0.879628 0.253705 1.13333 0.566667 1.13333Z"/>
<path id="path3_fill" fill-rule="evenodd" d="M 34 2.61108L 34 9.28882C 34 10.1206 33.6016 10.8545 32.9925 11.3333C 33.6011 11.8115 33.9994 12.5454 33.9994 13.3779L 33.9994 21.5334L 32.8661 21.5334L 32.8661 13.3779C 32.8661 12.563 32.2031 11.8999 31.3882 11.8999L 2.6112 11.8999C 1.79633 11.8999 1.13333 12.563 1.13333 13.3779L 1.13333 20.0554C 1.13333 20.8704 1.79633 21.5334 2.6112 21.5334L 21.5333 21.5334L 21.5333 22.6667L 2.6112 22.6667C 1.79633 22.6667 1.13333 23.3296 1.13333 24.1445L 1.13333 30.822C 1.13333 31.637 1.79633 32.3 2.6112 32.3L 15.8667 32.3L 15.8667 33.4333L 2.6112 33.4333C 1.1713 33.4333 0 32.262 0 30.822L 0 24.1445C 0 23.3127 0.398367 22.5789 1.00697 22.1001C 0.398367 21.6218 0 20.8879 0 20.0554L 0 13.3779C 0 12.5459 0.398367 11.8123 1.00697 11.3333C 0.398367 10.855 0 10.1213 0 9.28882L 0 2.61108C 0 1.17139 1.1713 0 2.6112 0L 31.3888 0C 32.8287 0 34 1.17139 34 2.61108ZM 1.13333 9.28882C 1.13333 10.1035 1.79633 10.7666 2.6112 10.7666L 31.3888 10.7666C 32.2037 10.7666 32.8667 10.1035 32.8667 9.28882L 32.8667 2.61108C 32.8667 1.79639 32.2037 1.1333 31.3882 1.1333L 2.6112 1.1333C 1.79633 1.1333 1.13333 1.79639 1.13333 2.61108L 1.13333 9.28882Z"/>
<path id="path4_fill" fill-rule="evenodd" d="M 2.55 5.1001C 1.1441 5.1001 0 3.95581 0 2.55005C 0 1.14404 1.1441 0 2.55 0C 3.9559 0 5.1 1.14404 5.1 2.55005C 5.1 3.95581 3.9559 5.1001 2.55 5.1001ZM 2.55 3.96655C 3.33143 3.96655 3.96667 3.3313 3.96667 2.55005C 3.96667 1.76855 3.33143 1.1333 2.55 1.1333C 1.76857 1.1333 1.13333 1.76855 1.13333 2.55005C 1.13333 3.3313 1.76857 3.96655 2.55 3.96655Z"/>
</defs>
</svg>

<svg xmlns="http://www.w3.org/2000/svg" xmlns:xlink="http://www.w3.org/1999/xlink" width="34" height="34"><g fill="#ED93A3" transform="translate(7 4085)"><use xlink:href="#A" x="11.332" y="-4062.05"/><use xlink:href="#B" x="-3.6" y="-4081.32"/><use xlink:href="#C" x="20.767" y="-4080.18"/><use xlink:href="#C" x="18.5" y="-4080.18"/><use xlink:href="#C" x="21.9" y="-4078.48"/><use xlink:href="#C" x="19.633" y="-4078.48"/><use xlink:href="#C" x="16.233" y="-4080.18"/><use xlink:href="#C" x="17.367" y="-4078.48"/><use xlink:href="#C" x="13.967" y="-4080.18"/><use xlink:href="#C" x="15.1" y="-4078.48"/><use xlink:href="#C" x="11.7" y="-4080.18"/><use xlink:href="#C" x="12.833" y="-4078.48"/><use xlink:href="#D" x="-7" y="-4084.72"/><use xlink:href="#E" x="-3.6" y="-4070.55"/><use xlink:href="#C" x="20.767" y="-4069.42"/><use xlink:href="#C" x="18.5" y="-4069.42"/><use xlink:href="#C" x="21.9" y="-4067.72"/><use xlink:href="#C" x="19.633" y="-4067.72"/><use xlink:href="#C" x="16.233" y="-4069.42"/><use xlink:href="#C" x="17.367" y="-4067.72"/><use xlink:href="#C" x="13.967" y="-4069.42"/><use xlink:href="#C" x="15.1" y="-4067.72"/><use xlink:href="#C" x="11.7" y="-4069.42"/><use xlink:href="#C" x="12.833" y="-4067.72"/><use xlink:href="#E" x="-3.6" y="-4059.78"/></g><defs><path id="A" d="M8.81 0c2.324 0 4.264 1.827 4.507 4.155 1.337.457 2.267 1.745 2.268 3.218 0 1.87-1.487 3.394-3.314 3.394H9.827c-.036 0-.07-.002-.107-.004l-.097.004H3.518C1.578 10.767 0 9.15 0 7.163c0-1.28.685-2.477 1.766-3.118.388-1.267 1.556-2.16 2.87-2.16.168 0 .335.014.5.043C5.985.73 7.356 0 8.81 0zm.993 9.632l2.466.002c1.203 0 2.18-1.014 2.18-2.26 0-1.086-.75-2.02-1.783-2.22l-.453-.088-.006-.46c-.024-1.913-1.55-3.47-3.4-3.47-1.21 0-2.302.645-2.923 1.725l-.23.403-.44-.148c-.188-.063-.382-.095-.578-.095-.873 0-1.642.64-1.83 1.525l-.058.27-.247.12c-.832.41-1.37 1.286-1.37 2.23 0 1.362 1.07 2.47 2.385 2.47l6.19-.005.096.003z" fill-rule="evenodd"/><path id="B" d="M0 2.55C0 1.144 1.144 0 2.55 0S5.1 1.144 5.1 2.55 3.956 5.1 2.55 5.1 0 3.956 0 2.55zm1.133 0A1.42 1.42 0 0 0 2.55 3.967 1.42 1.42 0 0 0 3.967 2.55 1.42 1.42 0 0 0 2.55 1.133 1.42 1.42 0 0 0 1.133 2.55z" fill-rule="evenodd"/><path id="C" d="M.567 1.133c.313 0 .567-.254.567-.567S.88 0 .567 0 0 .254 0 .567s.254.567.567.567z"/><path id="D" d="M34 2.61V9.29c0 .832-.398 1.566-1.008 2.044.61.478 1.007 1.212 1.007 2.045v8.156h-1.133v-8.155a1.48 1.48 0 0 0-1.478-1.478H2.61a1.48 1.48 0 0 0-1.478 1.478v6.677a1.48 1.48 0 0 0 1.478 1.478h18.922v1.133H2.61a1.48 1.48 0 0 0-1.478 1.478v6.677A1.48 1.48 0 0 0 2.611 32.3h13.256v1.133H2.61c-1.44 0-2.61-1.17-2.61-2.61v-6.677c0-.832.398-1.566 1.007-2.044C.398 21.622 0 20.888 0 20.055v-6.677c0-.832.398-1.566 1.007-2.045C.398 10.855 0 10.12 0 9.29V2.61C0 1.17 1.17 0 2.61 0H31.39C32.83 0 34 1.17 34 2.61zM1.133 9.29a1.48 1.48 0 0 0 1.478 1.478H31.39a1.48 1.48 0 0 0 1.478-1.478V2.61a1.48 1.48 0 0 0-1.479-1.478H2.61a1.48 1.48 0 0 0-1.478 1.478V9.29z" fill-rule="evenodd"/><path id="E" d="M2.55 5.1C1.144 5.1 0 3.956 0 2.55S1.144 0 2.55 0 5.1 1.144 5.1 2.55 3.956 5.1 2.55 5.1zm0-1.134A1.42 1.42 0 0 0 3.967 2.55 1.42 1.42 0 0 0 2.55 1.133 1.42 1.42 0 0 0 1.133 2.55 1.42 1.42 0 0 0 2.55 3.967z" fill-rule="evenodd"/></defs></svg>
